X: 164
M: 3/8
L: 1/8
K: G
d>ed | g>fe | d>Bc | d2 (3(B/c/d/) |\
e>fg | d>cB | Adc | B3 ::\
g>fe | d>cB | c>de | d2 c/d/ |\
e>cA | d>BG | A>gf | g3 :|

